src/assets/icons/weeks,fancy,15.svg

<svg width="48" height="48" viewBox="0 0 48 48" fill="none" xmlns="http://www.w3.org/2000/svg">
<rect opacity="0.2" x="4" y="6" width="40" height="40" rx="4" fill="black"/>
<path d="M18.6369 20.6364H14.59L9.54883 23.8281V27.6463L14.2122 24.723H14.3315V41H18.6369V20.6364ZM30.9142 41.2784C35.4483 41.2784 38.5307 38.3253 38.5208 34.2088C38.5307 30.3111 35.8063 27.5071 32.1373 27.5071C30.3475 27.5071 28.8063 28.2528 28.0904 29.2571H27.9711L28.498 24.1562H37.3972V20.6364H24.9483L23.9838 31.375L27.812 32.0611C28.4384 31.2159 29.6515 30.6889 30.8546 30.6889C32.9029 30.6989 34.3745 32.1804 34.3745 34.3182C34.3745 36.4361 32.9327 37.8977 30.9142 37.8977C29.204 37.8977 27.8219 36.8239 27.7225 35.2429H23.5463C23.6259 38.7628 26.6983 41.2784 30.9142 41.2784Z" fill="black"/>
<g opacity="0.4">
<path d="M10 4C10 2.89543 10.8954 2 12 2C13.1046 2 14 2.89543 14 4V8C14 9.10457 13.1046 10 12 10C10.8954 10 10 9.10457 10 8V4Z" fill="black"/>
<path d="M34 4C34 2.89543 34.8954 2 36 2C37.1046 2 38 2.89543 38 4V8C38 9.10457 37.1046 10 36 10C34.8954 10 34 9.10457 34 8V4Z" fill="black"/>
</g>
<path fill-rule="evenodd" clip-rule="evenodd" d="M10 6.00869C7.52043 6.04456 6.11466 6.22849 5.17157 7.17157C4 8.34315 4 10.2288 4 14V16H44V14C44 10.2288 44 8.34315 42.8284 7.17157C41.8853 6.22849 40.4796 6.04456 38 6.00869V8C38 9.10457 37.1046 10 36 10C34.8954 10 34 9.10457 34 8V6H14V8C14 9.10457 13.1046 10 12 10C10.8954 10 10 9.10457 10 8V6.00869Z" fill="black"/>
</svg>

<svg xmlns="http://www.w3.org/2000/svg" width="48" height="48" fill="none" viewBox="0 0 48 48">
  <rect width="40" height="40" x="4" y="6" fill="#000" opacity=".2" rx="4"/>
  <path fill="#000" d="M18.637 20.636H14.59l-5.041 3.192v3.818l4.663-2.923h.12V41h4.305V20.636zm12.277 20.642c4.534 0 7.617-2.953 7.607-7.07.01-3.897-2.715-6.7-6.384-6.7-1.79 0-3.33.745-4.047 1.75h-.119l.527-5.102h8.9v-3.52h-12.45l-.964 10.739 3.828.686c.626-.845 1.84-1.372 3.043-1.372 2.048.01 3.52 1.491 3.52 3.63 0 2.117-1.442 3.579-3.46 3.579-1.711 0-3.093-1.074-3.192-2.655h-4.177c.08 3.52 3.152 6.035 7.368 6.035z"/>
  <g opacity=".4">
    <path fill="#000" d="M10 4a2 2 0 114 0v4a2 2 0 11-4 0V4zM34 4a2 2 0 114 0v4a2 2 0 11-4 0V4z"/>
  </g>
  <path fill="#000" fill-rule="evenodd" d="M10 6.009c-2.48.036-3.885.22-4.828 1.163C4 8.343 4 10.229 4 14v2h40v-2c0-3.771 0-5.657-1.172-6.828-.943-.944-2.348-1.127-4.828-1.163V8a2 2 0 11-4 0V6H14v2a2 2 0 11-4 0V6.009z" clip-rule="evenodd"/>
</svg>
